svg/black/tks.svg

<?xml version="1.0" encoding="UTF-8"?>
<svg width="32px" height="32px" viewBox="0 0 32 32" version="1.1" xmlns="http://www.w3.org/2000/svg" xmlns:xlink="http://www.w3.org/1999/xlink">
    <!-- Generator: Sketch 52.5 (67469) - http://www.bohemiancoding.com/sketch -->
    <title>svg/black/tks</title>
    <desc>Created with Sketch.</desc>
    <g id="black/tks" stroke="none" stroke-width="1" fill="none" fill-rule="evenodd">
        <path d="M16,32 C7.163444,32 0,24.836556 0,16 C0,7.163444 7.163444,0 16,0 C24.836556,0 32,7.163444 32,16 C32,24.836556 24.836556,32 16,32 Z M17.77,14.25 C17.9298557,14.2403913 18.0901443,14.2403913 18.25,14.25 C19.73,14.35 20.41,16.36 21.35,16.25 C20.4690107,16.9701877 19.4471342,17.4981572 18.35,17.8 C17.4096812,17.9372211 16.5026378,17.3938311 16.18,16.5 L16.18,20.5 L22,17.18 L22,12 L17.77,14.25 Z M14.88,14.24 C14.4338315,13.8702432 14.1649922,13.3289316 14.14,12.75 L14.14,12.67 C14.14,11.51 16.01,9.67 16.07,9.67 C16.13,9.73 18,11.52 18,12.67 L18,12.76 C17.9821506,13.2735817 17.7672958,13.7605858 17.4,14.12 L22,11.65 L16,8.71 L10,11.62 L14.88,14.24 Z M15.86,16.54 C15.5410414,17.4378059 14.6330296,17.9859606 13.69,17.85 C12.5928658,17.5481572 11.5709893,17.0201877 10.69,16.3 C11.63,16.37 12.3,14.35 13.79,14.3 C13.9498557,14.2903913 14.1101443,14.2903913 14.27,14.3 L10,12 L10,17.19 L15.87,20.58 L15.86,16.54 Z M16,4 C9.372583,4 4,9.372583 4,16 C4,22.627417 9.372583,28 16,28 C22.627417,28 28,22.627417 28,16 C28,12.8174021 26.7357179,9.76515517 24.4852814,7.51471863 C22.2348448,5.26428208 19.1825979,4 16,4 Z M9.3,11.19 L16,7.94 L22.71,11.19 L22.71,17.58 L16,21.45 L9.3,17.58 L9.3,11.19 Z M22.73,20.19 L16.05,24.05 L9.29,20.15 L9.29,19.78 L16.05,23.68 L22.73,19.82 L22.73,20.19 Z M22.73,19.44 L16.05,23.3 L9.29,19.4 L9.29,19 L16.05,22.91 L22.73,19.05 L22.73,19.44 Z M22.73,18.69 L16.05,22.55 L9.29,18.65 L9.29,18.28 L16.05,22.19 L22.73,18.33 L22.73,18.69 Z" id="Combined-Shape" fill="#000000" fill-rule="nonzero"></path>
    </g>
</svg>

<svg width="32" height="32" viewBox="0 0 32 32" xmlns="http://www.w3.org/2000/svg"><path d="M16 32C7.163 32 0 24.837 0 16S7.163 0 16 0s16 7.163 16 16-7.163 16-16 16zm1.77-17.75a4 4 0 0 1 .48 0c1.48.1 2.16 2.11 3.1 2a8.16 8.16 0 0 1-3 1.55 2 2 0 0 1-2.17-1.3v4L22 17.18V12l-4.23 2.25zm-2.89-.01a2.05 2.05 0 0 1-.74-1.49v-.08c0-1.16 1.87-3 1.93-3 .06.06 1.93 1.85 1.93 3v.09a2 2 0 0 1-.6 1.36l4.6-2.47-6-2.94-6 2.91 4.88 2.62zm.98 2.3a2 2 0 0 1-2.17 1.31 8.16 8.16 0 0 1-3-1.55c.94.07 1.61-1.95 3.1-2a4 4 0 0 1 .48 0L10 12v5.19l5.87 3.39-.01-4.04zM16 4C9.373 4 4 9.373 4 16s5.373 12 12 12 12-5.373 12-12A12 12 0 0 0 16 4zm-6.7 7.19L16 7.94l6.71 3.25v6.39L16 21.45l-6.7-3.87v-6.39zm13.43 9l-6.68 3.86-6.76-3.9v-.37l6.76 3.9 6.68-3.86v.37zm0-.75l-6.68 3.86-6.76-3.9V19l6.76 3.91 6.68-3.86v.39zm0-.75l-6.68 3.86-6.76-3.9v-.37l6.76 3.91 6.68-3.86v.36z"/></svg>
